Numix-Light-GalliumOS/22/panel/kazam-stopped.svg

<?xml version="1.0" encoding="UTF-8" standalone="no"?>
<!-- Created with Inkscape (http://www.inkscape.org/) -->

<svg
   xmlns:dc="http://purl.org/dc/elements/1.1/"
   xmlns:cc="http://creativecommons.org/ns#"
   xmlns:rdf="http://www.w3.org/1999/02/22-rdf-syntax-ns#"
   xmlns:svg="http://www.w3.org/2000/svg"
   xmlns="http://www.w3.org/2000/svg"
   xmlns:sodipodi="http://sodipodi.sourceforge.net/DTD/sodipodi-0.dtd"
   xmlns:inkscape="http://www.inkscape.org/namespaces/inkscape"
   id="svg2"
   version="1.1"
   inkscape:version="0.91 r"
   width="22"
   height="22"
   viewBox="0 0 22 22"
   sodipodi:docname="kazam-stopped.svg">
  <metadata
     id="metadata8">
    <rdf:RDF>
      <cc:Work
         rdf:about="">
        <dc:format>image/svg+xml</dc:format>
        <dc:type
           rdf:resource="http://purl.org/dc/dcmitype/StillImage" />
        <dc:title />
      </cc:Work>
    </rdf:RDF>
  </metadata>
  <defs
     id="defs6" />
  <sodipodi:namedview
     pagecolor="#ffffff"
     bordercolor="#666666"
     borderopacity="1"
     objecttolerance="10"
     gridtolerance="10"
     guidetolerance="10"
     inkscape:pageopacity="0"
     inkscape:pageshadow="2"
     inkscape:window-width="1366"
     inkscape:window-height="747"
     id="namedview4"
     showgrid="true"
     inkscape:zoom="21.454545"
     inkscape:cx="13.033255"
     inkscape:cy="11.731204"
     inkscape:window-x="0"
     inkscape:window-y="21"
     inkscape:window-maximized="1"
     inkscape:current-layer="svg2">
    <inkscape:grid
       type="xygrid"
       id="grid4138" />
  </sodipodi:namedview>
  <path
     style="color:#000000;font-style:normal;font-variant:normal;font-weight:normal;font-stretch:normal;font-size:medium;line-height:normal;font-family:sans-serif;text-indent:0;text-align:start;text-decoration:none;text-decoration-line:none;text-decoration-style:solid;text-decoration-color:#000000;letter-spacing:normal;word-spacing:normal;text-transform:none;direction:ltr;block-progression:tb;writing-mode:lr-tb;baseline-shift:baseline;text-anchor:start;white-space:normal;clip-rule:nonzero;display:inline;overflow:visible;visibility:visible;opacity:1;isolation:auto;mix-blend-mode:normal;color-interpolation:sRGB;color-interpolation-filters:linearRGB;solid-color:#000000;solid-opacity:1;fill:#353535;fill-opacity:1;fill-rule:evenodd;stroke:none;stroke-width:1;stroke-linecap:butt;stroke-linejoin:round;stroke-miterlimit:4;stroke-dasharray:none;stroke-dashoffset:0;stroke-opacity:1;color-rendering:auto;image-rendering:auto;shape-rendering:auto;text-rendering:auto;enable-background:accumulate"
     d="M 2 4 C 1.7238691 4.0000276 1.5000276 4.2238691 1.5 4.5 L 1.5 17.5 C 1.5000276 17.776131 1.7238691 17.999972 2 18 L 14 18 C 14.276131 17.999972 14.499972 17.776131 14.5 17.5 L 14.5 14.308594 L 19.777344 16.947266 C 20.109563 17.112428 20.499627 16.871009 20.5 16.5 L 20.5 5.5 C 20.499627 5.1289908 20.109563 4.8875729 19.777344 5.0527344 L 14.5 7.6914062 L 14.5 4.5 C 14.499972 4.2238691 14.276131 4.0000276 14 4 L 2 4 z M 5.2285156 8 L 10.771484 8 C 10.897865 8.0001407 10.999847 8.0931878 11 8.2089844 L 11 13.791016 C 10.999847 13.906813 10.897865 13.999859 10.771484 14 L 5.2285156 14 C 5.1021344 13.999859 5.0001537 13.906814 5 13.791016 L 5 8.2089844 C 5.0001536 8.0931877 5.1021343 8.0001407 5.2285156 8 z "
     id="path4140" />
</svg>

<svg xmlns="http://www.w3.org/2000/svg" viewBox="0 0 22 22">
 <path d="m 2 4 c -0.276 0 -0.5 0.224 -0.5 0.5 l 0 13 c 0 0.276 0.224 0.5 0.5 0.5 l 12 0 c 0.276 0 0.5 -0.224 0.5 -0.5 l 0 -3.191 l 5.277 2.639 c 0.332 0.165 0.722 -0.076 0.723 -0.447 l 0 -11 c 0 -0.371 -0.39 -0.612 -0.723 -0.447 l -5.277 2.639 l 0 -3.191 c 0 -0.276 -0.224 -0.5 -0.5 -0.5 l -12 0 z m 3.229 4 l 5.543 0 c 0.126 0 0.228 0.093 0.229 0.209 l 0 5.582 c 0 0.116 -0.102 0.209 -0.229 0.209 l -5.543 0 c -0.126 0 -0.228 -0.093 -0.229 -0.209 l 0 -5.582 c 0 -0.116 0.102 -0.209 0.229 -0.209 z" mix-blend-mode="normal" isolation="auto" white-space="normal" solid-opacity="1" solid-color="#000000" style="visibility:visible;shape-rendering:auto;color-interpolation-filters:linearRGB;fill:#353535;opacity:1;image-rendering:auto;fill-opacity:1;stroke:none;display:inline;color:#000;fill-rule:evenodd;color-rendering:auto;color-interpolation:sRGB"/>
</svg>
